!!!COA: des Prez, Josquin
!!!CDT: ~1450-1521/08/27
!!!OTL: Benedicta sit sancta trinitas (Regensburg 76)
!!!AGN: Motet
!!!SCT: NJE 26.2
!!!SCA: New Josquin Edition 26.2
!!!voices: 1
**kern	**kern	**kern	**kern
*part4	*part3	*part2	*part1
*staff4	*staff3	*staff2	*staff1
*Ivox	*	*	*
*I"Bassus	*	*	*
*I'B	*	*	*
*>[A,B]	*>[A,B]	*>[A,B]	*>[A,B]
*>A	*>A	*>A	*>A
*clefF4	*clefGv2	*clefGv2	*clefGv2
*k[]	*k[]	*k[]	*k[]
*a:	*a:	*a:	*a:
*M2/1	*M2/1	*M2/1	*M2/1
*met(C|)	*met(C|)	*met(C|)	*met(C|)
!!section: Benedicta sit sancta trinitas
!!!OMD: Benedicta sit sancta trinitas
=	=	=	=
1.G	1G	1d	2.d
.	.	.	4e
.	1G	2B	4f
.	.	.	4d
4F	.	2c	[2g
4E	.	.	.
=3	=3	=3	=3
1D	1A	1d	2g]
.	.	.	2f
1C	1c	1e	[1g
=4	=4	=4	=4
1G	1B	2r	1g]
.	.	2d	.
2r	1c	1e	2g
2C	.	.	[2g
=5	=5	=5	=5
1F	1A	1c	4g]
.	.	.	4f
.	.	.	1f
2.C	1G	2c	.
.	.	[2c	2e
4E	.	.	.
=6	=6	=6	=6
1D	1F	2c]	2f
.	.	2B	4e
.	.	.	4d
1C	1G	2c	1e
.	.	4B	.
.	.	4A	.
=7	=7	=7	=7
2r	1G	2.B	2.d
2G	.	.	.
.	.	4c	4e
2D	1A	2d	4f
.	.	.	4g
[2F	.	2c	[2a
=8	=8	=8	=8
2F]	1c	1.A	2a]
4E	.	.	4g
4D	.	.	4f
2C	1c	.	[1e
[2AA	.	4G	.
.	.	4F	.
=9	=9	=9	=9
4AA]	1c	2.E	0e]
4BB	.	.	.
4C	.	.	.
4D	.	4F	.
1E	1B	1G	.
=10	=10	=10	=10
2AA	1c	2A	2e
1C	.	1G	1e
.	1A	.	.
2D	.	2F	4d
.	.	.	4c
=11	=11	=11	=11
2E	1G	2G	2B
4D	.	4F	1d
4C	.	4E	.
1BB	1G	1D	.
.	.	.	4c
.	.	.	4B
=12	=12	=12	=12
1AA	1A	1E	1c
2r	1c	1F	4A
.	.	.	4B
2A	.	.	4c
.	.	.	4d
=13	=13	=13	=13
2G	1c	2C	2e
2.F	.	2F	1f
.	2A	1F	.
4G	.	.	.
[2A	[2c	.	4e
.	.	.	4d
=14	=14	=14	=14
4A]	4c]	2r	2e
4G	4B	.	.
4F	4A	1D	2.d
4E	4G	.	.
2F	2A	.	.
.	.	.	4c
2E	2G	2E	[2c
=15	=15	=15	=15
1D	2A	1F	2c]
.	2F	.	2B
[1C	1G	1E	1c
=16	=16	=16	=16
1C]	1G	2E	2c
.	.	1e	1c
2r	1G	.	.
2D	.	[2f	[2d
=17	=17	=17	=17
1D	1F	4f]	4d]
.	.	4e	4c
.	.	4d	4B
.	.	4c	4A
[1E	1G	[1B	2.G
.	.	.	4A
=18	=18	=18	=18
2E]	1G	2B]	2B
4D	.	2c	2E
4C	.	.	.
1BB	1B	1d	2F
.	.	.	2G
=19	=19	=19	=19
[0AA	1c	2c	1A
.	.	2.e	.
.	1A	.	2.c
.	.	4d	.
.	.	4c	.
.	.	4B	4d
=20	=20	=20	=20
1AA]	1A	2A	4e
.	.	.	4f
.	.	2.c	2.e
2r	1F	.	.
.	.	4B	4d
[2A	.	4A	4c
.	.	4G	4B
=21	=21	=21	=21
4A]	1A	1F	1A
4G	.	.	.
4F	.	.	.
4E	.	.	.
1D	1A	2r	1a
.	.	2f	.
=22	=22	=22	=22
1.G	2.B	1.d	2.g
.	4c	.	4a
.	4d	.	4b
.	4B	.	4g
[2F	[2c	[2f	[2a
=23	=23	=23	=23
4F]	4c]	4f]	4a]
4G	4G	4d	4g
2E	2B	1e	1g
2C	1A	.	.
2D	.	2d	2f
=24	=24	=24	=24
1E	1G	2B	2g
.	.	1c	4f
.	.	.	4e
1D	1r	.	2f
.	.	2B	2d
=25	=25	=25	=25
1.C	1G	1c	1.e
.	1G	2C	.
2BB	.	2D	2d
=26	=26	=26	=26
1.AA	1A	1.E	1c
.	1c	.	1A
[2A	.	[2F	.
=27	=27	=27	=27
1A]	1c	1F]	2r
.	.	.	2c
1G	1B	1G	2e
.	.	.	4d
.	.	.	4c
=28	=28	=28	=28
1F	1d	1A	2f
.	.	.	2a
1E	1e	1B	1g
=29	=29	=29	=29
1.AA	1c	2.A	1e
.	.	4B	.
.	1A	4c	2r
.	.	4d	.
[2A	.	[2c	[2e
=30	=30	=30	=30
4A]	1c	4c]	2e]
4G	.	4B	.
2F	.	2A	2f
2E	1c	2G	2g
2F	.	2c	2a
=31	=31	=31	=31
2G	2B	2G	2g
1A	1c	2c	1f
.	.	1F	.
4G	4B	.	4e
4F	4A	.	4d
=32	=32	=32	=32
2G	2B	2r	2e
2F	1A	2D	1d
1E	.	2E	.
.	2G	2G	2c#Xi
=33	=33	=33	=33
1D	1A	1F	1d
2C	1A	2E	2e
2D	.	2D	2f
=34	=34	=34	=34
2C	1c	2E	2e
2AA	.	1A	2c
1BB	1B	.	1d
.	.	2G#Xi	.
=35	=35	=35	=35
1AA	1c	1A	2r
.	.	.	2e
1D	1d	2r	1f
.	.	2A	.
=36	=36	=36	=36
2E	1c	2G	4e
.	.	.	4d
1F	.	1A	4c
.	.	.	4B
.	1c	.	1A
4E	.	4G	.
4D	.	4F	.
=37	=37	=37	=37
2C	1A	2E	2e
1D	.	1F	2d
.	1B	.	2f
[2E	.	[2G	2e
=38	=38	=38	=38
2E]	1c	2G]	2g
2F	.	2A	2f
1G	1B	2B	1d
.	.	2G	.
=39	=39	=39	=39
2D	2A	2A	2r
1G	2G	2B	2.d
.	1A	1c	.
.	.	.	4e
2F	.	.	2f
=40	=40	=40	=40
2G	1G	1.B	2d
2.E	.	.	2e
.	1G	.	2g
4F	.	.	.
2G	.	[2e	2e
=41	=41	=41	=41
1F	1A	2e]	2f
.	.	2d	2a
1E	1B	2e	2g
.	.	2g	2e
=42	=42	=42	=42
2D	1B	2f	2f
2E	.	1e	2g
1F	1A	.	1a
.	.	2d	.
=43	=43	=43	=43
1.E	1B	1.e	[0g
.	1G	.	.
[2G	.	4d	.
.	.	4c	.
=44	=44	=44	=44
4G]	1E	1B	0g]
4F	.	.	.
4E	.	.	.
4D	.	.	.
2.C	2.E	1c	.
4D	4F	.	.
=45	=45	=45	=45
2E	2G	2B	2e
2F	1A	2A	2d
1E	.	1B	1e
.	2G#Xi	.	.
=46	=46	=46	=46
1AA	1A	1A	1c
2.A	2.A	2.c	1e
4G	4B	4B	.
=47	=47	=47	=47
2.F	4c	2A	2.f
.	4A	.	.
.	2d	2.F	.
4E	.	.	4g
2D	2A	.	2a
.	.	4G	.
2C	2c	4A	[2e
.	.	4F	.
=48	=48	=48	=48
1E	2B	1G	2e]
.	1c	.	2g
1F	.	1A	2f
.	4B	.	2d
.	4A	.	.
=49	=49	=49	=49
2E	2B	2G	2e
2C	2c	4F	1g
.	.	4E	.
1D	1A	2D	.
.	.	2F	2f
=50	=50	=50	=50
2.E	[0Gl	2.C	2.g
4D	.	4D	4f
2C	.	4E	2e
.	.	4F	.
2BB	.	2G	2d
=51	=51	=51	=51
2E	0G_	2C	2e
2BB	.	2D	2d
1C	.	1E	1c
=52	=52	=52	=52
0GGl	0G]	0Dl	0Bl
!!LO:LB:i:g=z
=53||	=53||	=53||	=53||
*>B	*>B	*>B	*>B
*clefF4	*clefGv2	*clefGv2	*clefGv2
*k[]	*k[]	*k[]	*k[]
*M2/1	*M2/1	*M2/1	*M2/1
*met(C|)	*met(C|)	*met(C|)	*met(C|)
!!section: Benedicamus patrem et filium
!!!OMD: Benedicamus patrem et filium
1G	1G	1G	2.d
.	.	.	4e
1F	1A	2.c	2f
.	.	.	4e
.	.	4d	4f
=54	=54	=54	=54
1E	1G	1e	2.g
.	.	.	4f
2C	1G	2r	2e
2G	.	2B	2d
=55	=55	=55	=55
2F	1c	2c	2f
2E	.	2e	2g
2F	1c	1A	2a
4E	.	.	4g
4D	.	.	4f
=56	=56	=56	=56
2C	1c	2r	1e
2.AA	.	2.c	.
.	1c	.	[1e
4BB	.	4B	.
4C	.	2A	.
4D	.	.	.
=57	=57	=57	=57
1E	1B	1G	1e]
1A	1c	1F	2r
.	.	.	2f
=58	=58	=58	=58
2G	1d	2r	1g
4F	.	2G	.
4E	.	.	.
2D	1d	2A	2f
2BB	.	2B	2d
=59	=59	=59	=59
2C	1c	2G	1e
2AA	.	1A	.
1BB	1d	.	1r
.	.	2G#Xi	.
=60	=60	=60	=60
1AA	1c	1A	1e
2.C	1c	1G	2.e
4D	.	.	4f
=61	=61	=61	=61
2E	1c	1r	2g
2F	.	.	2a
1G	1B	1d	1g
=62	=62	=62	=62
1C	1G	1c	1e
[1F	1A	2c	2f
.	.	[2A	[2a
=63	=63	=63	=63
1F]	1c	4A]	4a]
.	.	4B	4g
.	.	4c	4f
.	.	4A	4e
1G	1B	2B	[1d
.	.	2G	.
=64	=64	=64	=64
2F	2A	4A	2d]
.	.	4B	.
2E	1G	1c	2e
1D	.	.	1f
.	2F	2B	.
=65	=65	=65	=65
0Cl	0Gl	0cl	0el
==	==	==	==
*-	*-	*-	*-
!!!RDF**kern: l=long note in original notation
!!!system-decoration: [(s1,s2,s3,s4)]
!!!RDF**kern: i = editorial accidental
!!!RDF**kern: V = start of tuplet marker
!!!RDF**kern: Z = end of tuplet marker
!!!ENC: Jesse Rodin, 3 November 2020
!!!END: 2020/11/03/
!!!EED: Jesse Rodin
!!!EEV: 2021/05/19/
!!attribution-level@Jos: 4a (the rest [double question mark])
!!!ONB: Translated from MusicXML and edited on 2021/05/19/ by Craig Sapp
!!muse2ps: C^@{COA}??\n@{SCT}^i2I150v85,85,85,120c110z18
